X: 35941
T: Sara's Song
R: waltz
M: 3/4
K: Aminor
V:1
|:"Am"e>e e|acd|"Em"e3-|"C"e2e|"Em"g>gg|"G"def|"C"e3-|e2 e|
V:2
|:A,CE/A/|E>zC|B,/E/ GE|C>zC|B,/E/ GB|GDB,|C/E/G2|E>zC|
V:1
"Em"g2 g|"Am"A3|"Dm"f>gf|"Em"G3|"C"e2 e|"G"dcB|"Am"A3-|1 A3:|2 (A/B/c/d/ (3e/f/g/||
V:2
B,/E/ GB,|C>zA,|D/E/FD|E>zG,|C/E/GE|DGD|E/C/ E/A/ E/C/|1 A,zE:|2 A,CE||
V:1
"F"a2) g|c'3|"C" c2 G|e3|"Em"e>fg|"Am"a2e|"G"d3-|d2e|
V:2
FAc|F/A/cA|GED|C/E/Gz|B,/E/GB|cAA,|B,/D/GD|B>zE|
V:1
"Dm"f2 d|a>gf|"Em"e2e/d/|"Am"c3|"Em"e>fe|"Dm"d2"G"d/B/|"Am" A3-|Az A/B/|
V:2
D/F/AF|DFA|B/A/GE|C>zA|B/A/GE|A/G/F/E/D|A,/C/EC|A,2E|
V:1
"C"c2G|"Em"g>fe|"G"d2G|"Em"g>fe|"Am"e2 "G"G|"C"g>fe|"G"d3-|d2e|
V:2
C/E/GC|B,/E/GB,|D/G/B D|E/G/BE/D/|C EG|EGc|B/A/GD|B,>z G|
V:1
"Dm"f2 d|a>gf|"Em"e2d|"Am"c3|"Em"e>fe|"Dm"dc"G"G/B/|"Am" A3-|A2c/d/||
V:2
D/F/AF|DFA|B/A/GE/D/|C>zA|B/A/GE|A/G/FD|A,/C/EA,|E2E||

